X:1
T:Title
%%score { ( 1 2 ) | ( 3 4 ) }
L:1/8
Q:1/4=112
M:4/4
K:Eb
V:1 treble nm="Grand Piano"
V:2 treble 
V:3 bass 
V:4 bass 
V:1
 B4 z4 | B8 | A4 GAcB | G8 | A4 FGAB | G4 EFGA | F4 DEFD | E6 z2 | G2 FG A2 FE | D6 z2 | %10
 G2 B,2 A2 GA | B6 G2 | G2 FG A2 FE | D6 B,c | B2 B,A G2 F2 | E8 |] %16
V:2
 z2 E,2 GEGA | z4 B,2 z2 | x8 | z4 B,2 z2 | x8 | x8 | x8 | x8 | x8 | z2 B,4 B,2 | x8 | x8 | x8 | %13
 x8 | x8 | x8 |] %16
V:3
 E,,2 z2 [E,G,B,]2 E,2 | E,,2 E,2 G,2 E,2 | C,2 z[K:treble] F A,2[K:bass] E,2 | E,,2 E,2 G,2 E,2 | %4
 E,2 A,2 C2 A,2 | E,2 G,2 B,2 G,2 | B,,2 F,2 A,2 F,2 | E,2 G,2 B,2 G2 | E,2 [G,B,]2 E,2 [A,C]2 | %9
 D,2 A,4 z2 | B,2 z2 [E,A,C]4 | E,2 G,2 B,2 z2 | [E,G,B,]4 [E,A,C]4 | [D,A,B,]6 z2 | %14
 [E,A,C]4 [D,A,B,]4 | [E,G,B,]8 |] %16
V:4
 x8 | x8 | z2 E,2[K:treble] z4[K:bass] | x8 | x8 | x8 | x8 | x8 | x8 | x8 | [E,G,]4 z4 | x8 | x8 | %13
 x8 | x8 | x8 |] %16

